X: 1176
T: The Girl Who Broke My Heart
M:C|
L:1/8
R:Reel
B:O'Neill's 1176
N:Collected by F. O'Neill
Z:Transcribed by Trish O'Neil
K:Gm
(dc)|BGFD EC-~C2|DG{A}G^F GABc|d=efd cAGF|D(E{G}FE)F2(dc)|
BGFD EC-~C2|D(G{A}G^F) GABc|d=efd cAGF|D(G{A}G^F)G2||
(D^F)|G2(Bd) gdBG|F2(Ac) fcAF|G2(Bd) gdBd|Tc=Bcd cAFA|
G2(Bd)|gdBG|F2(Ac)  fcdB|GABd cAGF|D(G{A}G^F)G2||


